svg-icons/swap-vertical-arrows-down-duotone.svg

<svg width="24" height="25" viewBox="0 0 24 25" fill="none" xmlns="http://www.w3.org/2000/svg"><g id="swap-vertical-arrows-down-duotone"><g id="Vector"><path fill-rule="evenodd" clip-rule="evenodd" d="M7.5 2.28571C6.94772 2.28571 6.5 2.73342 6.5 3.28571L6.5 15.2857C6.5 15.838 6.94772 16.2857 7.5 16.2857C8.05229 16.2857 8.5 15.838 8.5 15.2857L8.5 3.28571C8.5 2.73342 8.05229 2.28571 7.5 2.28571Z" fill="#ACB8C3"/><path fill-rule="evenodd" clip-rule="evenodd" d="M8.20711 2.5786C7.81658 2.18807 7.18342 2.18807 6.79289 2.5786L3.29289 6.0786C2.90237 6.46912 2.90237 7.10229 3.29289 7.49281C3.68342 7.88334 4.31658 7.88334 4.70711 7.49281L7.5 4.69992L10.2929 7.49281C10.6834 7.88334 11.3166 7.88334 11.7071 7.49281C12.0976 7.10229 12.0976 6.46912 11.7071 6.0786L8.20711 2.5786Z" fill="#ACB8C3"/></g><g id="Vector_2"><path fill-rule="evenodd" clip-rule="evenodd" d="M16.5 22.2857C17.0523 22.2857 17.5 21.838 17.5 21.2857L17.5 9.28571C17.5 8.73342 17.0523 8.28571 16.5 8.28571C15.9477 8.28571 15.5 8.73342 15.5 9.28571L15.5 21.2857C15.5 21.838 15.9477 22.2857 16.5 22.2857Z" fill="#3B4754"/><path fill-rule="evenodd" clip-rule="evenodd" d="M15.7929 21.9928C16.1834 22.3833 16.8166 22.3833 17.2071 21.9928L20.7071 18.4928C21.0976 18.1023 21.0976 17.4691 20.7071 17.0786C20.3166 16.6881 19.6834 16.6881 19.2929 17.0786L16.5 19.8715L13.7071 17.0786C13.3166 16.6881 12.6834 16.6881 12.2929 17.0786C11.9024 17.4691 11.9024 18.1023 12.2929 18.4928L15.7929 21.9928Z" fill="#3B4754"/></g></g></svg>

<svg xmlns="http://www.w3.org/2000/svg" width="24" height="25" viewBox="0 0 24 25">
  <path fill-rule="evenodd" d="M7.5 2.286a1 1 0 0 0-1 1v12a1 1 0 1 0 2 0v-12a1 1 0 0 0-1-1Z" clip-rule="evenodd"/>
  <path fill-rule="evenodd" d="M8.207 2.579a1 1 0 0 0-1.414 0l-3.5 3.5a1 1 0 0 0 1.414 1.414L7.5 4.7l2.793 2.793a1 1 0 1 0 1.414-1.414l-3.5-3.5ZM16.5 22.286a1 1 0 0 0 1-1v-12a1 1 0 1 0-2 0v12a1 1 0 0 0 1 1Z" clip-rule="evenodd"/>
  <path fill-rule="evenodd" d="M15.793 21.993a1 1 0 0 0 1.414 0l3.5-3.5a1 1 0 0 0-1.414-1.414L16.5 19.872l-2.793-2.793a1 1 0 0 0-1.414 1.414l3.5 3.5Z" clip-rule="evenodd"/>
</svg>
